X:1
T:Abendfrieden / Trost in Kummer
T:Johann Abraham Peter Schulz
T:1-2: Hoffmann von Fallersleben a-c: Christian Adolf Overbeck: "Trost in Kummer"
T:Abendfrieden 
T:CPDL   —   Creative Commons Attribution Non Commercial 3.0
T:CPDL   —   Creative Commons Attribution Non Commercial 3.0
C:Johann Abraham Peter Schulz
Z:Hoffmann von Fallersleben / Christian Adolf Overbeck
Z:CPDL   —   Creative Commons Attribution Non Commercial 3.0
%%score [ ( 1 2 ) ( 3 4 ) ]
L:1/8
Q:1/4=80
M:4/4
K:G
V:1 treble nm="Sopran\nAlt"
V:2 treble 
V:3 bass nm="Tenor\nBass"
V:4 bass 
V:1
"^Einfach"!p! G2 G2 F2 F2 |!>(! E4 D4!>)! | d2 G2 F2 G2 | A8 |!<(! B2 B2!<)! ^c2 c2 | %5
w:   1.  A- bend wird es|wie- der.|Ü- ber Wald und|Feld|säu- selt Frie- den|
w:   2. Und kein A- bend|brin- get|Frie- den ihm und|Ruh',|kei- ne Glo- cke|
!>(! d4 A4!>)! |!<(! D2 DE!<)! F2 E2 |!>(! D6!>)! z2 |!p! A2 A2!<(! B2 B2!<)! |!>(! c4 A4!>)! | %10
w: nie- der,|und es * ruht die|Welt.|Nur der Bach er-|gie- ßet|
w: klin- get|ihm ein * Rast- lied|zu.|So in dei- nem|Stre- ben|
!mf! d2 d2!>(! c2 B2!>)! | A6 z2 |!<(! G2 G2!<)! F2 F2 |!>(! E4 D4!>)! | %14
w: sich am Fel- sen|dort,|  und er braust und|flie- ßet|
w: bist mein Herz auch|du,|  Gott nur kann dir|ge- ben|
!<(! d2 GA!<)!!>(! B2 A2!>)! | G6 !fermata!z2 |] %16
w: rast- los * im- mer|fort.|
w: wah- re * A- bend-|ruh'.|
V:2
 G2 G2 F2 F2 | E4 D4 | D2 D2 D2 D2 | F8 | G2 G2 G2 GE | D4 D4 | D2 D2 D2 ^C2 | D6 x2 | %8
 F2 F2 ^G2 G2 | E4 F4 | =G2 G2 F2 G2 | F6 x2 | E2 E2 D2 D2 | C4 B,4 | D2 ^C2 D2 =C2 | B,6 x2 |] %16
V:3
!p! G,2 G,2 F,2 F,2 |!>(! E,4 D,4!>)! | G,2 D2 C2 B,2 | D8 |!<(! D2 D2!<)! E2 A,2 | %5
w:   a. Wa- rum sind der|Trä- nen|un- term Mond so|viel?|und so man- ches|
w:  b. Auf- ge- schaut mit|Freu- den,|him- mel- auf zum|Herrn!|sei- ner Kin- der|
w:   c. Sind wir nicht vom|Schlum- mer|im- mer noch er-|wacht?|Le- ben und sein|
!>(! A,4 A,4!>)! |!<(! B,2 ^G,2!<)! A,2 =G,2 |!>(! F,6!>)! z2 |!p! D2 D2!<(! D2 D2!<)! | %9
w: Seh- nen,|das nicht laut sein|will!|Nicht doch, lie- be|
w: Lei- den|mil- dert er so|gern.|Er will uns er-|
w: Kum- mer|währt nur ei- ne|Nacht;|die- se Nacht ent-|
!>(! C4 D4!>)! |!mf! D2 D2!>(! D2 D2!>)! | D6 z2 |!<(! B,2 B,2!<)! B,2 B,2 |!>(! G,4"^—" G,4!>)! | %14
w: Brü- der!|ist das un- ser|Mut?| Schlagt den Kum- mer|nie- der,|
w: freu- en,|und er- freut so|sehr;| sei- ne Hän- de|streu- en|
w: flie- het|und der Tag bricht|an,|   eh' man´s sich's ver-|sie- het|
!<(! G,2 G,2!<)!!>(! G,2 F,2!>)! | G,6 !fermata!z2 |] %16
w: es wird al- les|gut!|
w: Se- gen all- um-|her.|
w: dann ist´s wohl- ge-|tan!|
V:4
 G,2 G,2 F,2 F,2 | E,4 D,4 | B,,2 B,2 A,2 G,2 | D,8 | G,2 G,2 E,2 E,2 | F,4 F,4 | %6
 B,,2 B,,2 A,,2 A,,2 | D,6 x2 | D,2 =C2 B,2 E,2 | A,4 D,4 | B,,2 B,2 A,2 G,2 | D,6 x2 | %12
 E,2 E,2 B,,2 B,,2 | C,4 G,,4 | B,,2 E,2 D,2 D,2 | G,,6 x2 |] %16

